!!!!SEGMENT: pl-kk--kk-i-480--005_wiltberger-august--missa-agnus.krn
!!!cenid: 18xx:1439
!!!COM: Wiltberger, August
!!!COM-rismid: pe327522
!!!CDT: 1850/04/17-1928/12/02
!!!CNT: German
!!!OPR: Missa
!!!OTL: Agnus
!!!OMV: 005
!!!PDT:
!!!AGN: Sacred; Mass
!!!SMS-siglum: PL-Kk
!!!SMS-shelfmark: Kk.I.480
!!!SMS-shelfwork: 001-005 M
!!!SMS-variant: Tenor I PL-Kk Kk.I.480:0008; Tenor II PL-Kk Kk.I.480:0013; Bas I PL-Kk Kk.I.480:0018-0019; Bas II PL-Kk Kk.I.480:0023-0024
!!!SMS-altvar: partytura PL-Kk Kk.I.480:0003-0004
!!!NIFC-rismid: 1001140257
!!!URL-scan: http://repozytorium.nifc.pl/skany/pl-kk-nut--i-480
!!!ONB-nifc: UWAGA: na podstawie głosów. Proszę uzupełnić pola !!!SMS dot. partytury i głosów. Uwaga: części mszy: 1. Kyrie, 2. Gloria, 3. Sanctus, 4. Benedictus, 5. Agnus
!!!AIN: 2 empty 2 tenor
!!!key:
**kern	**text	**dynam	**kern	**text	**dynam	**kern	**text	**dynam	**kern	**text	**dynam
*part4	*part4	*part4	*part3	*part3	*part3	*part2	*part2	*part2	*part1	*part1	*part1
*staff4	*staff4	*	*staff3	*staff3	*	*staff2	*staff2	*	*staff1	*staff1	*
*Iempty	*	*	*Iempty	*	*	*Itenor	*	*	*Itenor	*	*
*I"Bas II	*	*	*I"Bas I	*	*	*I"Tenor II	*	*	*I"Tenor I	*	*
*I'B 2	*	*	*I'B 1	*	*	*I'T 2	*	*	*I'T 1	*	*
*clefF4	*	*	*clefF4	*	*	*clefG2	*	*	*clefG2	*	*
*	*	*	*	*	*	*ITrd7c12	*	*	*ITrd7c12	*	*
*k[b-]	*	*	*k[b-]	*	*	*k[b-]	*	*	*k[b-]	*	*
*F:	*	*	*F:	*	*	*F:	*	*	*F:	*	*
*M4/4	*	*	*M4/4	*	*	*M4/4	*	*	*M4/4	*	*
*met(c)	*	*	*met(c)	*	*	*met(c)	*	*	*met(c)	*	*
=1	=1	=1	=1	=1	=1	=1	=1	=1	=1	=1	=1
!LO:TX:t=P:problem=dynamika "p" dopisana ołówkiem	!	!LO:DY:a:rj	!	!	!LO:DY:a:rj	!	!	!LO:DY:a:rj	!	!	!LO:DY:a:rj
2F\	A-	p	2F\	A-	p	2F/	A-	p	2A/	A-	p
(>4D\	-gnus	.	2F\	-gnus	.	2F/	-gnus	.	(>4B-\	-gnus	.
4F\)	.	.	.	.	.	.	.	.	4A/)	.	.
=2	=2	=2	=2	=2	=2	=2	=2	=2	=2	=2	=2
!	!	!	!	!	!	!	!	!	!	!	!LO:HP:a
(>4E\	De-	.	4G\	De-	.	(>(<4G/	De-	.	2c\	De-	<
!LO:TX:a:t=P:problem=oznaczenie dynamiczne na pięciolinii pod nutami	!	!LO:HP:b	!	!	!	!	!	!	!	!	!
4F\	.	<	4F\	.	.	4A/)	.	.	.	.	.
4B-\	.	.	[>2B-\	.	.	2B-\	.	.	4d\	.	.
4G\	.	[[	.	.	.	.	.	.	4e\	.	[[
=3	=3	=3	=3	=3	=3	=3	=3	=3	=3	=3	=3
2F\)	.	.	4B-\]	.	.	2c\)	.	.	2f\	.	.
.	.	.	4A\	.	.	.	.	.	.	.	.
4E,\	-i,	.	4G,\	-i	.	4c,\	-i	.	4c,\	-i,	.
4F\	qui	.	4F\	qui	.	4A/	qui	.	4c\	qui	.
=4	=4	=4	=4	=4	=4	=4	=4	=4	=4	=4	=4
2BB-/	tol-	.	2F\	tol-	.	2B-\	tol-	.	2d\	tol-	.
4F\	-lis	.	4F,\	-lis	.	4A,/	-lis	.	4c\	-lis	.
4E\	pec-	.	4E\	pec-	.	4G/	pec-	.	4c\	pec-	.
!LO:LB:g=original	!	!	!	!	!	!	!	!	!LO:LB:g=original	!	!
=5	=5	=5	=5	=5	=5	=5	=5	=5	=5	=5	=5
!	!	!	!	!	!	!	!	!	!	!	!LO:HP:a
(>4D\	-ca-	.	(>4F\	-ca-	.	(<4F/	-ca-	.	2.B-\	-ca-	>
!	!	!LO:HP:a	!	!	!	!	!	!	!	!	!
2GG/)	.	>	8G\L	.	.	4D/	.	.	.	.	.
.	.	.	8F\J	.	.	.	.	.	.	.	.
.	.	.	4E\)	.	.	4C/)	.	.	.	.	.
4FF/	-ta	.	4C/	-ta	.	4F/	-ta	.	4A/	-ta	]]
!	!	!	!LO:LB:g=original	!	!	!LO:LB:g=original	!	!	!	!	!
=6	=6	=6	=6	=6	=6	=6	=6	=6	=6	=6	=6
2C/	mun-	]	2C/	mun-	.	(<4F/	mun-	.	2G/	mun-	.
.	.	.	.	.	.	8E/L	.	.	.	.	.
.	.	.	.	.	.	8D/J)	.	.	.	.	.
2C/	-di,	.	2C/	-di	.	2E/	-di	.	2G/	-di,	.
=7	=7	=7	=7	=7	=7	=7	=7	=7	=7	=7	=7
!	!	!LO:DY:a	!	!	!LO:DY:a:rj	!	!	!LO:DY:a	!	!	!LO:DY:a:rj
2C/	mi-	p	2C/	mi-	p	2E/	mi-	p	2G/	mi-	p
2C/	-se-	.	2C/	-se-	.	2E/	-se-	.	2G/	-se-	.
=8	=8	=8	=8	=8	=8	=8	=8	=8	=8	=8	=8
2FF/	-re-	.	2C/	-re-	.	2F/	-re-	.	2A/	-re-	.
2FF/	-re	.	2F\	-re-	.	2A/	-re	.	2c\	-re	.
=9	=9	=9	=9	=9	=9	=9	=9	=9	=9	=9	=9
!	!	!LO:HP:a	!	!	!	!	!	!LO:HP:a	!	!	!LO:HP:a
1C	no-	<	(>2F\	-no-	.	1G	no-	<	1c	no-	<
!	!	!LO:HP:a	!	!	!	!	!	!LO:HP:a	!	!	!LO:HP:a
.	.	[ >]]	2E\)	.	.	.	.	[ >]]	.	.	[ >]]
=10	=10	=10	=10	=10	=10	=10	=10	=10	=10	=10	=10
1FF	-bis.	]	1C	-bis.	.	1F	-bis.	]	1A	-bis	]
!LO:LB:g=original	!	!	!	!	!	!	!	!	!	!	!
=11||	=11||	=11||	=11||	=11||	=11||	=11||	=11||	=11||	=11||	=11||	=11||
!	!	!LO:DY:a:rj	!	!	!LO:DY:a:rj	!	!	!LO:DY:a:rj	!	!	!LO:DY:a:rj
2D\	A-	p	2D\	A-	p	2F/	A-	p	2A/	A-	p
(<4.D\	-gnus	.	2D\	-gnus	.	2F/	-gnus	.	(>4B-\	-gnus	.
.	.	.	.	.	.	.	.	.	4A/)	.	.
8C/)	.	.	.	.	.	.	.	.	.	.	.
!	!	!	!	!	!	!LO:LB:g=original	!	!	!LO:LB:g=original	!	!
=12	=12	=12	=12	=12	=12	=12	=12	=12	=12	=12	=12
!	!	!LO:HP:a	!	!	!	!	!	!LO:HP:a	!LO:TX:a:t=P:problem=oznaczenie dynamiczne na pięciolinii pod nutami	!	!LO:HP:b
2BB-/	De-	<	(>4D\	De-	.	4F/	De-	<	(>2.d\	De-	<
.	.	.	4E\)	.	.	4G/	.	.	.	.	.
2FF/	.	.	[>2F\	.	.	[<2A/	.	.	.	.	.
.	.	.	.	.	.	.	.	[[	4c\	.	[
!	!	!	!LO:LB:g=original	!	!	!	!	!	!	!	!
=13	=13	=13	=13	=13	=13	=13	=13	=13	=13	=13	=13
2D\	.	.	2F\]	.	.	4A/]	.	.	2f\)	.	.
.	.	[	.	.	.	4Bn\	.	.	.	.	.
4C,/	-i	.	4G,\	-i	.	4c,\	-i	.	4e,\	-i,	.
4F\	qui	.	4F\	qui	.	4A/	qui	.	4c\	qui	.
=14	=14	=14	=14	=14	=14	=14	=14	=14	=14	=14	=14
2BB-/	tol-	.	2F\	tol-	.	2B-\	tol-	.	2d\	tol-	.
4BB-,/	-lis	.	4F,\	-lis	.	4B-,\	-lis	.	4d,\	-lis	.
4GG/	pec-	.	4E\	pec-	.	4B-\	pec-	.	4c\	pec-	.
=15	=15	=15	=15	=15	=15	=15	=15	=15	=15	=15	=15
2FF/	-ca-	.	2.F\	-ca-	.	2A/	-ca-	.	2c\	-ca-	.
2FF/	-ta	.	.	.	.	2A/	-ta	.	2c\	-ta	.
!	!	!	!	!	!LO:HP:a	!	!	!	!	!	!
.	.	.	4E\	-ta	>	.	.	.	.	.	.
!LO:LB:g=original	!	!	!	!	!	!	!	!	!	!	!
=16	=16	=16	=16	=16	=16	=16	=16	=16	=16	=16	=16
!	!	!	!	!	!	!	!	!LO:HP:a	!	!	!
2GG/	mud-	.	2D\	mun-	.	2G/	mun-	>	2B-\	mun-	.
2D\	-di,	.	2D\	-di,	]	2F#X/	-di,	]	2A/	-di,	.
!	!	!	!	!	!	!LO:LB:g=original	!	!	!	!	!
=17	=17	=17	=17	=17	=17	=17	=17	=17	=17	=17	=17
!	!	!LO:DY:a:rj	!	!	!LO:DY:a:rj	!	!	!	!	!	!LO:DY:a:rj
2GG/	mi-	p	2D\	mi-	p	2G/	mi-	.	2B-\	mi-	p
2GG/	-se-	.	2D\	-se-	.	2G/	-se-	.	2B-\	-se-	.
!	!	!	!	!	!	!	!	!	!LO:LB:g=original	!	!
=18	=18	=18	=18	=18	=18	=18	=18	=18	=18	=18	=18
2FF/	-re-	.	2F\	-re-	.	2A/	-re-	.	2c\	-re-	.
2BB-/	-re	.	2F\	-re	.	2B-\	-re	.	2d\	-re	.
!	!	!	!LO:PB:g=original	!	!	!	!	!	!	!	!
=19	=19	=19	=19	=19	=19	=19	=19	=19	=19	=19	=19
!	!	!LO:HP:a	!	!	!LO:HP:a	!	!	!LO:HP:a	!LO:TX:a:t=P:problem=oznaczenia dynamiczne na pięciolinii pod nutą	!	!LO:HP:b
1E-X	no-	<	1G	no-	<	1B-	no-	<	1e-X	no-	<
!	!	!LO:HP:a	!	!	!LO:HP:a	!	!	!LO:HP:a	!	!	!LO:HP:b
.	.	[ > ]	.	.	[ > ]	.	.	[ > ]	.	.	[ > ]
=20	=20	=20	=20	=20	=20	=20	=20	=20	=20	=20	=20
1BB-	-bis	]	1F	-bis	]	1B-	-bis	]	1d	-bis.	]
=21	=21	=21	=21	=21	=21	=21	=21	=21	=21	=21	=21
!	!	!LO:DY:a:rj	!	!	!	!	!	!	!	!	!
!	!	!LO:HP:a	!	!	!	!	!	!LO:DY:a:rj	!	!	!LO:DY:a:rj
!	!	!	!	!	!	!	!	!	!LO:TX:a:t=P:problem=oznaczenie dynamiczne (cresc) na pięciolinii pod nutami	!	!LO:HP:b
2G\	A-	p <	2G\	A-	.	2B-\	A-	p	2d\	A-	p <
2G\	-gnus	[[	2G\	-gnus	.	2B-\	-gnus	.	(>4e-X\	-gnus	.
.	.	.	.	.	.	.	.	.	4d\)	.	[[
!LO:PB:g=original	!	!	!	!	!	!	!	!	!	!	!
=22	=22	=22	=22	=22	=22	=22	=22	=22	=22	=22	=22
(>2E-X\	De-	.	(>4G\	De-	.	(>4B-\	De-	.	(>(>2.g\	De-	.
.	.	.	4A\)	.	.	4c\	.	.	.	.	.
2BB-/	.	.	2B-\	.	.	2d\	.	.	.	.	.
.	.	.	.	.	.	.	.	.	4f\)	.	.
!	!	!	!	!	!	!LO:LB:g=original	!	!	!	!	!
=23	=23	=23	=23	=23	=23	=23	=23	=23	=23	=23	=23
2C/)	.	.	2G\	.	.	4c\	.	.	2e-X\	.	.
.	.	.	.	.	.	4B-\)	.	.	.	.	.
4D,\	-i,	.	4F#X\	-i	.	4A,/	-i	.	4d\)	-i,	.
4G\	qui	.	4G\	qui	.	4B-\	qui	.	4d\	qui	.
!	!	!	!	!	!	!	!	!	!LO:LB:g=original	!	!
=24	=24	=24	=24	=24	=24	=24	=24	=24	=24	=24	=24
2En\	tol-	.	2G\	tol-	.	2B-\	tol-	.	2c\	tol-	.
4F,\	-lis	.	4F,\	-lis	.	4A,/	-lis	.	4c\	-lis	.
4BB-/	pec-	.	4F\	pec-	.	4B-\	pec-	.	4d\	pec-	.
!	!	!	!LO:LB:g=original	!	!	!	!	!	!	!	!
=25	=25	=25	=25	=25	=25	=25	=25	=25	=25	=25	=25
(>4D\	-ca-	.	(>4F\	-ca-	.	(<4F/	-ca-	.	2.B-\	-ca-	.
[<4GG/)	.	.	8G\L	.	.	4D/	.	.	.	.	.
.	.	.	8F\J)	.	.	.	.	.	.	.	.
4GG/]	.	.	4E\	.	.	4C/)	.	.	.	.	.
4FF/	-ta	.	4F\	-ta	.	4F/	-ta	.	4A/	-ta	.
=26	=26	=26	=26	=26	=26	=26	=26	=26	=26	=26	=26
!	!	!LO:HP:a	!	!	!	!	!	!	!	!	!
2C/	mun-	>	2C/	munn-	.	(<4F/	mun-	.	2G/	mun-	.
.	.	.	.	.	.	4E/)	.	.	.	.	.
2FF/	-di	]	2C/	-di	.	2F/	-di,	.	2A/	-di	.
!LO:LB:g=original	!	!	!	!	!	!	!	!	!	!	!
=27	=27	=27	=27	=27	=27	=27	=27	=27	=27	=27	=27
!LO:TX:a:t=2.	!	!	!	!	!LO:DY:a:rj	!	!	!LO:DY:a:rj	!LO:TX:a:t=1.	!	!
!LO:TX:a:t=P:problem=belka oznaczająca pauzę	!	!	!	!	!	!	!	!	!LO:TX:a:t=P:problem=belka oznaczająca pauzę jednotaktową	!	!
1r	.	.	2A\	Do-	mf	(>2c\	do-	mf	1r	.	.
.	.	.	4G\	.	.	4B-\)	.	.	.	.	.
.	.	.	4F\	-na	.	4A/	-na	.	.	.	.
!	!	!	!	!	!	!LO:LB:g=original	!	!	!	!	!
=28	=28	=28	=28	=28	=28	=28	=28	=28	=28	=28	=28
1r	.	.	4G\	no-	.	4B-\	no-	.	2r	.	.
.	.	.	4A\	-bis	.	4c\	-bis	.	.	.	.
!	!	!	!	!	!	!	!	!	!	!	!LO:DY:a:rj
.	.	.	(>4B-\	pa-	.	(>4d\	pa-	.	(>2f\	do-	mf
.	.	.	4A\)	.	.	4c\)	.	.	.	.	.
!	!	!	!	!	!	!	!	!	!LO:LB:g=original	!	!
=29	=29	=29	=29	=29	=29	=29	=29	=29	=29	=29	=29
2r	.	.	2G,\	-cem,	.	2B-,\	-cem,	.	4e\)	.	.
.	.	.	.	.	.	.	.	.	4d\	-na	.
4C/	do-	.	4G\	do-	.	4B-\	do-	.	4e\	no-	.
4D\	-na	.	4F\	-na	.	4A/	-na	.	4f\	-bis	.
!	!	!	!LO:LB:g=original	!	!	!	!	!	!	!	!
=30	=30	=30	=30	=30	=30	=30	=30	=30	=30	=30	=30
2BB-/	pa-	.	2F\	pa-	.	2B-\	pa-	.	2d\	pa-	.
2F\	-cem,	.	2F\	-cem	.	2A,/	-cem,	.	2c,\	-cem,	.
=31	=31	=31	=31	=31	=31	=31	=31	=31	=31	=31	=31
!LO:TX:a:t=P:problem=oznaczenie dynamiczne na pięciolinii pod nutami	!	!LO:HP:b	!	!	!	!	!	!LO:HP:a	!LO:TX:a:t=P:problem=oznaczenie dynamiczne na pięciolinii pod nutami	!	!LO:HP:b
(>2B-\	do-	<	[>2B-\	do-	.	2.B-\	do-	<	(2d\	do-	<
4G\)	.	.	4B-\]	.	.	.	.	.	4e\)	.	.
4F\	-na	[[	4A\	-na	.	4c\	-na	[[	4f\	-na	[
=32	=32	=32	=32	=32	=32	=32	=32	=32	=32	=32	=32
!	!	!LO:DY:a	!	!	!LO:DY:a:rj	!	!	!LO:DY:a:rj	!	!	!LO:DY:a:rj
4BB-/	no-	f	4B-\	no-	f	4d\	no-	f	4g\	no-	f
4BB-/	-bis	.	8G\L	-bis	.	4B-,\	-bis	.	4d\	-bis	.
.	.	.	8F\J	.	.	.	.	.	.	.	.
[<2C/	pa-	.	(>4E\	pa-	.	(<4B-\	pa-	.	(>4c\	pa-	.
.	.	.	8F\L	.	.	8A/L	.	.	[>4f\)	.	.
.	.	.	8G\J	.	.	8B-/J	.	.	.	.	.
=33	=33	=33	=33	=33	=33	=33	=33	=33	=33	=33	=33
!	!	!	!	!	!	!LO:TX:a:t=rit.	!	!	!	!	!
2C/]	.	.	(>4A\	.	.	2c\)	.	.	4f\]	.	.
!	!	!	!LO:TX:a:t=rit.	!	!	!	!	!	!LO:TX:a:t=rit.	!	!
.	.	.	4G\))	.	.	.	.	.	4e\	.	.
2FF;</ 2F	-cem.	.	2A;>\	-cem.	.	2c\	-cem.	.	2f\	-cem.	.
==	==	==	==	==	==	==	==	==	==	==	==
*-	*-	*-	*-	*-	*-	*-	*-	*-	*-	*-	*-
!!!system-decoration: [(s1,s2,s3,s4)]
!!!RDF**kern: > = above
!!!RDF**kern: < = below
!!!EED: Mateusz Mrugas
!!!EEV: 2021-01-31
!!!ENC: Kamil Watkowski
!!!END: 2021-01-23
